dist/img/icons/Social__icons/insta.svg

<svg width="25" height="25" viewBox="0 0 25 25" fill="none" xmlns="http://www.w3.org/2000/svg">
<path fill-rule="evenodd" clip-rule="evenodd" d="M12 4C9.82733 4 9.5549 4.00921 8.70161 4.04814C7.8501 4.08698 7.26855 4.22223 6.7597 4.42001C6.23363 4.62442 5.78748 4.89797 5.34271 5.34271C4.89797 5.78748 4.62442 6.23363 4.42001 6.7597C4.22223 7.26855 4.08698 7.8501 4.04814 8.70161C4.00921 9.5549 4 9.82733 4 12C4 14.1727 4.00921 14.4451 4.04814 15.2984C4.08698 16.1499 4.22223 16.7314 4.42001 17.2403C4.62442 17.7664 4.89797 18.2125 5.34271 18.6573C5.78748 19.102 6.23363 19.3756 6.7597 19.58C7.26855 19.7778 7.8501 19.913 8.70161 19.9519C9.5549 19.9908 9.82733 20 12 20C14.1727 20 14.4451 19.9908 15.2984 19.9519C16.1499 19.913 16.7314 19.7778 17.2403 19.58C17.7664 19.3756 18.2125 19.102 18.6573 18.6573C19.102 18.2125 19.3756 17.7664 19.58 17.2403C19.7778 16.7314 19.913 16.1499 19.9519 15.2984C19.9908 14.4451 20 14.1727 20 12C20 9.82733 19.9908 9.5549 19.9519 8.70161C19.913 7.8501 19.7778 7.26855 19.58 6.7597C19.3756 6.23363 19.102 5.78748 18.6573 5.34271C18.2125 4.89797 17.7664 4.62442 17.2403 4.42001C16.7314 4.22223 16.1499 4.08698 15.2984 4.04814C14.4451 4.00921 14.1727 4 12 4ZM12 5.44144C14.1361 5.44144 14.3891 5.4496 15.2327 5.48809C16.0127 5.52366 16.4363 5.65398 16.7182 5.76354C17.0916 5.90867 17.3581 6.08202 17.638 6.36198C17.918 6.64191 18.0913 6.90841 18.2365 7.28183C18.346 7.56373 18.4763 7.98732 18.5119 8.76731C18.5504 9.61088 18.5586 9.86391 18.5586 12C18.5586 14.1361 18.5504 14.3891 18.5119 15.2327C18.4763 16.0127 18.346 16.4363 18.2365 16.7182C18.0913 17.0916 17.918 17.3581 17.638 17.638C17.3581 17.918 17.0916 18.0913 16.7182 18.2365C16.4363 18.346 16.0127 18.4763 15.2327 18.5119C14.3892 18.5504 14.1362 18.5586 12 18.5586C9.86375 18.5586 9.61079 18.5504 8.76731 18.5119C7.98732 18.4763 7.56373 18.346 7.28183 18.2365C6.90841 18.0913 6.64191 17.918 6.36198 17.638C6.08205 17.3581 5.90867 17.0916 5.76354 16.7182C5.65398 16.4363 5.52366 16.0127 5.48809 15.2327C5.4496 14.3891 5.44144 14.1361 5.44144 12C5.44144 9.86391 5.4496 9.61088 5.48809 8.76731C5.52366 7.98732 5.65398 7.56373 5.76354 7.28183C5.90867 6.90841 6.08202 6.64191 6.36198 6.36198C6.64191 6.08202 6.90841 5.90867 7.28183 5.76354C7.56373 5.65398 7.98732 5.52366 8.76731 5.48809C9.61088 5.4496 9.86391 5.44144 12 5.44144ZM7.89189 12C7.89189 9.73114 9.73114 7.89189 12 7.89189C14.2689 7.89189 16.1081 9.73114 16.1081 12C16.1081 14.2689 14.2689 16.1081 12 16.1081C9.73114 16.1081 7.89189 14.2689 7.89189 12ZM12 14.6667C10.5272 14.6667 9.33333 13.4728 9.33333 12C9.33333 10.5272 10.5272 9.33333 12 9.33333C13.4728 9.33333 14.6667 10.5272 14.6667 12C14.6667 13.4728 13.4728 14.6667 12 14.6667ZM16.2704 8.68957C16.8006 8.68957 17.2304 8.25979 17.2304 7.72959C17.2304 7.19939 16.8006 6.76957 16.2704 6.76957C15.7402 6.76957 15.3104 7.19939 15.3104 7.72959C15.3104 8.25979 15.7402 8.68957 16.2704 8.68957Z" fill="white"/>
</svg>

<svg width="25" height="25" fill="none" xmlns="http://www.w3.org/2000/svg"><path fill-rule="evenodd" clip-rule="evenodd" d="M12 4c-2.173 0-2.445.01-3.298.048-.852.039-1.433.174-1.942.372a3.921 3.921 0 00-1.417.923A3.9 3.9 0 004.42 6.76c-.198.509-.333 1.09-.372 1.942C4.01 9.555 4 9.827 4 12s.01 2.445.048 3.298c.039.852.174 1.433.372 1.942.204.526.478.973.923 1.417a3.9 3.9 0 001.417.923c.509.198 1.09.333 1.942.372C9.555 19.99 9.827 20 12 20s2.445-.01 3.298-.048c.852-.039 1.433-.174 1.942-.372a3.922 3.922 0 001.417-.923c.445-.445.719-.89.923-1.417.198-.509.333-1.09.372-1.942.039-.853.048-1.125.048-3.298s-.01-2.445-.048-3.298c-.039-.852-.174-1.433-.372-1.942a3.922 3.922 0 00-.923-1.417 3.921 3.921 0 00-1.417-.923c-.509-.198-1.09-.333-1.942-.372C14.445 4.01 14.173 4 12 4zm0 1.441c2.136 0 2.39.009 3.233.047.78.036 1.203.166 1.485.276.374.145.64.318.92.598.28.28.453.546.598.92.11.282.24.705.276 1.485.038.844.047 1.097.047 3.233s-.009 2.39-.047 3.233c-.036.78-.166 1.203-.276 1.485-.145.374-.318.64-.598.92-.28.28-.546.453-.92.598-.282.11-.705.24-1.485.276-.844.038-1.097.047-3.233.047s-2.39-.009-3.233-.047c-.78-.036-1.203-.166-1.485-.276a2.479 2.479 0 01-.92-.598 2.478 2.478 0 01-.598-.92c-.11-.282-.24-.705-.276-1.485-.038-.844-.047-1.097-.047-3.233s.009-2.39.047-3.233c.036-.78.166-1.203.276-1.485.145-.374.318-.64.598-.92.28-.28.546-.453.92-.598.282-.11.705-.24 1.485-.276.844-.038 1.097-.047 3.233-.047zM7.892 12a4.108 4.108 0 118.216 0 4.108 4.108 0 01-8.216 0zM12 14.667a2.667 2.667 0 110-5.334 2.667 2.667 0 010 5.334zm4.27-5.977a.96.96 0 100-1.92.96.96 0 000 1.92z" fill="#fff"/></svg>
